packages/foundations/assets/icons/functional/images/technology/wifi_20.svg

<svg width="20" height="20" viewBox="0 0 20 20" fill="none" xmlns="http://www.w3.org/2000/svg">
<g clip-path="url(#clip0_187_647)">
<path fill-rule="evenodd" clip-rule="evenodd" d="M2 6.88367C2 6.60179 2.09375 6.38255 2.28125 6.16332C4.4375 4.03357 6.90625 3 10.0625 3C12.9062 3 15.6562 4.12752 17.6875 6.16332C17.875 6.35124 18 6.63311 18 6.88367C18 7.47875 17.5625 7.88591 17 7.88591C16.75 7.88591 16.5 7.79195 16.2812 7.60403C14.625 5.91276 12.4062 4.97316 10.0625 4.97316C7.59375 4.97316 5.375 5.88143 3.6875 7.57271C3.5 7.76063 3.25 7.88591 3 7.88591C2.5625 7.88591 2 7.54139 2 6.88367ZM5.6875 10.3602C5.6875 10.1096 5.78125 9.82774 6 9.63982C7.15625 8.54363 8.40625 7.97987 10.0625 7.97987C11.5938 7.97987 13.0312 8.57495 14.125 9.63982C14.3438 9.85906 14.4062 10.1096 14.4062 10.3602C14.4062 10.83 14.0938 11.3624 13.4062 11.3624C13.1562 11.3624 12.9062 11.2685 12.7188 11.0805C12 10.3915 11.0625 9.98434 10.0625 9.98434C9.0625 9.98434 8.0625 10.3915 7.40625 11.0805C7.21875 11.2685 6.96875 11.3624 6.6875 11.3624C6.09375 11.3624 5.6875 10.83 5.6875 10.3602ZM8 15C8 13.9062 8.875 13 10 13C11.0938 13 12 13.875 12 15C12 16.0938 11.125 17 10 17C8.90625 17 8 16.125 8 15Z" fill="#1A1C1F"/>
</g>
<defs>
<clipPath id="clip0_187_647">
<rect width="20" height="20" fill="white"/>
</clipPath>
</defs>
</svg>

<svg xmlns="http://www.w3.org/2000/svg" width="20" height="20" fill="none"><g clip-path="url(#a)"><path fill="#1A1C1F" fill-rule="evenodd" d="M2 6.884c0-.282.094-.501.281-.72C4.438 4.033 6.906 3 10.062 3c2.844 0 5.594 1.128 7.626 3.163.187.188.312.47.312.72 0 .596-.437 1.003-1 1.003a1.1 1.1 0 0 1-.719-.282 8.67 8.67 0 0 0-6.218-2.63c-2.47 0-4.688.907-6.376 2.599-.187.188-.437.313-.687.313-.437 0-1-.345-1-1.002m3.688 3.476c0-.25.093-.532.312-.72 1.156-1.096 2.406-1.66 4.063-1.66 1.53 0 2.968.595 4.062 1.66.219.22.281.47.281.72 0 .47-.312 1.002-1 1.002-.25 0-.5-.094-.687-.281-.719-.69-1.656-1.097-2.656-1.097s-2 .408-2.657 1.097a.99.99 0 0 1-.718.281c-.594 0-1-.532-1-1.002M8 15c0-1.094.875-2 2-2 1.094 0 2 .875 2 2 0 1.094-.875 2-2 2-1.094 0-2-.875-2-2" clip-rule="evenodd"/></g><defs><clipPath id="a"><path fill="#fff" d="M0 0h20v20H0z"/></clipPath></defs></svg>
